X:1
T: Miss Betty Hunter
C:
R:Jig
Q:180
K:Eb
M:6/8
L:1/16
|:B2|e4B2 G3BG2|E4E2 E4G2|A4G2 F4E2|E2D2C2 B,4B2|
e4B2 G3BG2|E4E2 E4B2|c4A2 F4D2|E4E2E4:|
|:B2|B4B2 B3c_d2|_d2c2c2 c6|c4c2 c2d2e2|e2d2d2 d4B2|
e4B2 g4e2|b2b2g2 e4B2|c2c2A2 F4D2|E4E2E4:|
